markets/ETHFI.svg

<svg width="43" height="42" viewBox="0 0 43 42" fill="none" xmlns="http://www.w3.org/2000/svg">
<g clip-path="url(#clip0_9309_2868)">
<path d="M21.2439 42C32.8419 42 42.2439 32.598 42.2439 21C42.2439 9.40202 32.8419 0 21.2439 0C9.64592 0 0.243896 9.40202 0.243896 21C0.243896 32.598 9.64592 42 21.2439 42Z" fill="black"/>
<path d="M36.2557 23.1574C36.2557 23.1492 36.2557 23.1492 36.2557 23.1574C36.2557 23.141 36.2557 23.1328 36.2639 23.1328C36.2721 23.1082 36.2721 23.0836 36.2721 23.0508C36.2721 23.0426 36.2721 23.0344 36.2721 23.018C36.2721 22.9934 36.2721 22.9688 36.2639 22.9441C36.2639 22.9359 36.2639 22.9359 36.2639 22.9277L35.1975 18.4734C35.1564 18.3094 35.0334 18.1863 34.8693 18.1453L30.4561 17.0789C30.4479 17.0789 30.4396 17.0789 30.4314 17.0789C30.4068 17.0707 30.3904 17.0707 30.3658 17.0707C30.3576 17.0707 30.3412 17.0707 30.333 17.0707C30.3084 17.0707 30.2838 17.0789 30.251 17.0789C30.2428 17.0789 30.2346 17.0789 30.2264 17.0789H30.2182C30.1853 17.0871 30.1607 17.1035 30.1279 17.1199C30.1197 17.1199 30.1197 17.1281 30.1115 17.1281C30.0869 17.1445 30.0623 17.1609 30.0459 17.1773L30.0377 17.1855L24.6975 22.3699C24.6482 22.3863 24.599 22.4191 24.5662 22.452C24.5252 22.493 24.4924 22.5422 24.476 22.5914L22.5646 24.4535L21.4982 20.7867C21.4982 20.7785 21.49 20.7621 21.4818 20.7539C21.4736 20.7375 21.4736 20.7293 21.4654 20.7211C21.4408 20.6719 21.4162 20.6309 21.3752 20.598C21.3342 20.5652 21.2932 20.5406 21.2439 20.516C21.2357 20.5078 21.2193 20.5078 21.2111 20.4996C21.2029 20.4996 21.1865 20.4914 21.1783 20.4832L17.61 19.6219L25.1568 12.1078L24.0084 7.0793L19.1439 5.98828L6.21582 18.8672L7.30684 23.7234L11.7283 24.8719L12.8111 29.1457C12.8521 29.3098 12.9834 29.4328 13.1475 29.4656L17.2408 30.2859L18.4467 34.5926C18.4467 34.6008 18.4549 34.609 18.4631 34.6254C18.4713 34.6336 18.4713 34.65 18.4795 34.6582C18.5041 34.6992 18.5287 34.7484 18.5615 34.7812V34.7895C18.5943 34.8223 18.6436 34.8551 18.6928 34.8715C18.7092 34.8797 18.7174 34.8797 18.7338 34.8879C18.742 34.8961 18.7584 34.8961 18.7666 34.9043L23.0979 36.0117C23.1307 36.0199 23.1717 36.0281 23.2045 36.0281C23.2455 36.0281 23.2783 36.0199 23.3111 36.0117C23.3193 36.0117 23.3193 36.0117 23.3275 36.0117C23.3357 36.0117 23.3439 36.0035 23.3439 36.0035C23.3604 35.9953 23.3768 35.9953 23.385 35.9871C23.4014 35.9789 23.4096 35.9707 23.426 35.9707C23.4342 35.9625 23.4506 35.9543 23.4588 35.9461C23.467 35.9379 23.4834 35.9297 23.4916 35.9215C23.4998 35.9133 23.4998 35.9133 23.508 35.9051L36.1326 23.3625L36.1408 23.3543C36.1572 23.3379 36.1736 23.3133 36.19 23.2887C36.19 23.2805 36.1982 23.2805 36.1982 23.2723C36.2311 23.2148 36.2475 23.182 36.2557 23.1574ZM30.5135 27.6855L29.6686 24.2895L31.7521 22.2059L35.0088 23.2148L30.5135 27.6855ZM23.4178 34.7402L22.4744 31.4918L26.2725 27.6938L29.4635 28.7355L23.4178 34.7402ZM18.2334 30.5566L21.2357 31.4754L19.0947 33.6164L18.2334 30.5566ZM24.6564 23.6578L25.567 27.1523L21.933 30.7863L18.4221 29.7117L24.6564 23.6578ZM30.1443 18.3258L31.1287 21.5906L29.0779 23.6414L25.7557 22.5914L30.1443 18.3258ZM29.6604 27.8742L26.9697 26.9965L28.9467 25.0195L29.6604 27.8742ZM26.2889 26.4305L25.5096 23.4363L28.3807 24.3387L26.2889 26.4305ZM21.7607 32.1973L22.5646 34.9535L19.7264 34.2316L21.7607 32.1973ZM35.2303 22.3781L31.9818 21.3691L31.0057 18.1125L34.41 18.9328L35.2303 22.3781ZM17.8396 29.0555L17.0439 25.7824L18.258 24.5109L21.5475 25.4543L17.8396 29.0555ZM18.3236 23.1656L17.4459 20.4832L20.2432 21.1559L18.3236 23.1656ZM18.9471 23.7891L20.8748 21.7629L21.6951 24.5684L18.9471 23.7891ZM17.6346 23.8875L16.4205 25.159L12.9506 24.273L16.5764 20.6637L17.6346 23.8875ZM13.5658 12.7887L14.4928 15.8648L10.6783 19.7121L7.53652 18.7934L13.5658 12.7887ZM19.8822 10.4262L17.8807 12.4523L14.6404 11.7223L19.0619 7.32539L19.8822 10.4262ZM19.4475 16.5621L18.5943 12.9773L20.4893 11.066L23.8525 12.1734L19.4475 16.5621ZM15.1982 15.1594L14.4189 12.5754L17.1506 13.1906L15.1982 15.1594ZM17.8643 13.7074L18.5615 16.6523L15.8299 15.7664L17.8643 13.7074ZM10.5799 21.0574L11.4412 23.8875L8.5291 23.1328L10.5799 21.0574ZM11.2854 20.352L15.1326 16.4719L18.4549 17.5547L12.3025 23.6824L11.2854 20.352ZM24.074 11.3121L20.7354 10.2129L19.8904 7.05469L23.2701 7.81758L24.074 11.3121ZM7.29043 19.6383L9.97285 20.4258L7.93027 22.4848L7.29043 19.6383ZM13.5904 28.6535L12.6963 25.118L16.1908 26.0121L17.0029 29.3344L13.5904 28.6535Z" fill="url(#paint0_linear_9309_2868)"/>
</g>
<defs>
<linearGradient id="paint0_linear_9309_2868" x1="12.9317" y1="29.3484" x2="29.6021" y2="12.6779" gradientUnits="userSpaceOnUse">
<stop stop-color="#34A3ED"/>
<stop offset="0.9988" stop-color="#8165F5"/>
</linearGradient>
<clipPath id="clip0_9309_2868">
<rect width="42" height="42" fill="white" transform="translate(0.243896)"/>
</clipPath>
</defs>
</svg>

<svg width="43" height="42" fill="none" viewBox="0 0 43 42" xmlns="http://www.w3.org/2000/svg">
  <g clip-path="url(#a)">
    <path fill="#000" d="M21.244 42c11.598 0 21-9.402 21-21s-9.402-21-21-21-21 9.402-21 21 9.402 21 21 21"/>
    <path fill="url(#b)" d="M36.256 23.157q0-.012 0 0c0-.016 0-.024.008-.024a.3.3 0 0 0 .008-.082v-.033q.002-.038-.008-.074v-.016l-1.067-4.455a.45.45 0 0 0-.328-.328l-4.413-1.066h-.025c-.024-.008-.04-.008-.065-.008h-.033c-.025 0-.05.008-.082.008h-.033c-.033.008-.057.024-.09.04-.008 0-.008.01-.017.01a.4.4 0 0 0-.065.048l-.008.009-5.34 5.184a.37.37 0 0 0-.222.221l-1.911 1.862-1.067-3.666a.06.06 0 0 0-.016-.033c-.008-.017-.008-.025-.017-.033a.34.34 0 0 0-.09-.123.7.7 0 0 0-.131-.082c-.008-.008-.025-.008-.033-.016a.06.06 0 0 1-.033-.017l-3.568-.861 7.547-7.514-1.149-5.029-4.864-1.09L6.216 18.866l1.09 4.856 4.422 1.149 1.083 4.274a.43.43 0 0 0 .337.32l4.093.82 1.206 4.307c0 .008.008.016.016.032.008.009.008.025.017.033.024.041.049.09.081.123v.008a.4.4 0 0 0 .132.082c.016.009.024.009.04.017.009.008.025.008.034.016l4.33 1.108a.5.5 0 0 0 .107.016.4.4 0 0 0 .107-.016h.017c.008 0 .016-.008.016-.008.016-.009.033-.009.041-.017.016-.008.025-.016.041-.016.008-.008.025-.017.033-.025s.024-.016.033-.024l.016-.017 12.625-12.542.008-.009.049-.065c0-.009.008-.009.008-.017a1 1 0 0 0 .058-.115m-5.742 4.529-.845-3.396 2.083-2.084 3.257 1.009zm-7.096 7.054-.944-3.248 3.799-3.798 3.19 1.041zm-5.185-4.183 3.003.918-2.141 2.141zm6.423-6.9.911 3.495-3.634 3.634-3.51-1.074zm5.488-5.331.985 3.265-2.051 2.05-3.322-1.05zm-.484 9.548-2.69-.877 1.977-1.977zm-3.37-1.443-.78-2.994 2.872.903zm-4.528 5.767.804 2.756-2.839-.721zm13.47-9.819-3.25-1.009-.975-3.256 3.404.82zM17.84 29.055l-.796-3.273 1.214-1.271 3.29.943zm.484-5.89-.878-2.682 2.797.673zm.623.624 1.928-2.026.82 2.805zm-1.312.098L16.42 25.16l-3.47-.886 3.626-3.61zm-4.07-11.098.928 3.076-3.815 3.847-3.141-.919zm6.317-2.363-2.001 2.026-3.24-.73 4.42-4.397zm-.434 6.136-.854-3.585 1.895-1.911 3.363 1.107zm-4.25-1.403-.78-2.584 2.733.616zm2.666-1.452.697 2.945-2.731-.886zm-7.284 7.35.861 2.83-2.912-.754zm.705-.705 3.848-3.88 3.322 1.083-6.152 6.127zm12.789-9.04-3.339-1.1-.845-3.157 3.38.763zM7.29 19.638l2.683.788-2.043 2.059zm6.3 9.016-.894-3.536 3.495.894.812 3.322z"/>
  </g>
  <defs>
    <linearGradient id="b" x1="12.932" x2="29.602" y1="29.348" y2="12.678" gradientUnits="userSpaceOnUse">
      <stop stop-color="#34A3ED"/>
      <stop offset=".999" stop-color="#8165F5"/>
    </linearGradient>
    <clipPath id="a">
      <path fill="#fff" d="M.244 0h42v42h-42z"/>
    </clipPath>
  </defs>
</svg>
